!!!OTL: 1311. Husarenbraut (1758).
!!!ODT: 1855
!!!ARE: Europa, Mitteleuropa, Deutschland, Bayern, Bayreuth
!!!SCT: E1317
!!!TXL: @@DE
!!!YEM: Copyright 1995, estate of Helmut Schaffrath.
**kern	**text
*ICvox	*
*M2/4	*
*k[f#]	*
*G:	*
!LO:TX:a:t=Mäßig bewegt.	!
!LO:TX:a:t=Volksweiſe, 1855 aus der Gegend von Baireuth.	!
{8d	Wir
=1	=1
(8d	preu-
8g)	-ßi-
8g	-ſche
8g	Hu-
=2	=2
4g	-ſa-
[8a}	-ren,
{8a]	wann
=3	=3
(8aL	krie-
8bJ)	.
8b/	-gen
8b/	wir
=4	=4
4b	Geld?
8r}	.
{8a	Wir
=5	=5
8b/	müſ-
8a	-ſen
8b	ja
8cc	mar-
=6	=6
4dd	-ſchie-
8cc}	-ren
{8b	ins
=7	=7
16bqq	.
4a	wei-
4a	-te
=8	=8
4a	Feld;
8r}	.
{8dd	wir
=9	=9
8bL	müſ-
8ddJ	.
8dd	-ſen
8dd	mar-
=10	=10
4ee	-ſchie-
8ee}	-ren
{8dd	dem
=11	=11
8ccL	Feind'
8bJ	.
8ccL	ent-
8eeJ	.
=12	=12
4.dd}	-geg'n,
{8cc	daß
=13	=13
8.bL	wir
16aJ	.
8bL	ihn
8ccJ	.
=14	=14
8ddL	kön-
8ccJ	.
8cc}	-nen
{8cc	den
=15	=15
4b/	Paß
4a	ver-
=16	=16
4g	-leg'n.
8r}	.
{8dd	wir
=17	=17
8bL	müſ-
8ddJ	.
8dd	-ſen
8dd	mar-
=18	=18
4ee	-ſchie-
8ee}	-ren
{8dd	dem
=19	=19
8ccL	Feind'
8bJ	.
8ccL	ent-
8eeJ	.
=20	=20
4.dd}	-geg'n,
{8cc	daß
=21	=21
8.bL	wir
16aJ	.
8bL	ihn
8ccJ	.
=22	=22
8ddL	kön-
8ccJ	.
8cc}	-nen
{8cc	den
=23	=23
4b/	Paß
4a	ver-
=24	=24
4g	-leg'n.
8r}	.
==	==
!!!AGN: Staende -, Soldaten -, Kriegs - Lied
!!!ONB: ESAC (Essen Associative Code) Database: ERK3
!!!AMT: simple duple
!!!AIN: vox
!!!EED: Helmut Schaffrath
!!!EEV: 1.0
!!!GTL: Staendelieder (Berufslieder). 1. Soldaten- und Kriegslieder. Soldatenlieder seit dem 30jaehr. Kriege.
!!!URL-scan: https://rosdok.uni-rostock.de/mcrviewer/recordIdentifier/rosdok_ppn745177999/iview2/phys_0205.iview2?x=-128.77276441889308&y=1077.4826416744618&scale=0.5870222003877485&rotation=0&layout=singlePageLayout
!!!ENC: Anna Maria Matuszewska
!!!EEV: 2024/12/27
*-	*-
